X: 430
T: Breaking Up Christmas
B: jims roots
M:4/4
L:1/8
R: reel
Q: 1/4=100
K:A
V:1 
|: "A" efed cBcd | efed [c2e2] [c2e2] | efed cBAc | "E" BABc "A" [A2E2] [A2E2] |
"A" efed cBcd | efed [c2e2] [c2e2] | [c2a2] [c2a2] "G" [=g2B2] [=g2B2] | "Em" ed =c2 "A" [E4A4] :|
|: "A" EFAB [c2e2] [c2e2] | "E" BABc BAFE | "A" EFAB [c2e2] f2 | "E" ecBc "A" [E2A2] [E2A2] |
"A" EFAB [c2e2] [c2e2] | "E" BABc BAFE | "A" EFAB [c2e2] f2 | "E" ec B2 "A" [E4A4] :|
% abcbook-tune_id 6298c245ac2ff3d43a435836


% abcbook-boost 0
% abcbook-tablature 
% abcbook-transpose 
% abcbook-lastupdated 1654178373493
% abcbook-soundfonts 
% abcbook-repeats 1


